X:1
T:Carol of the Bells
T:Mykola Leontovych
%%score 1 2 3 4
L:1/8
Q:1/4=180
M:3/4
K:C
V:1 treble+8 nm="S." snm="S."
V:2 treble nm="A." snm="A."
V:3 treble nm="T." snm="T."
V:4 bass+8 nm="B" snm="B."
V:1
"^180 BPM" c2 Bc A2 | c2 Bc A2 | c2 Bc A2 | c2 Bc A2 | c2 Bc A2 | c2 Bc A2 | c2 Bc A2 | c2 Bc A2 | %8
 c2 Bc A2 | c2 Bc A2 | c2 Bc A2 | c2 Bc A2 | c2 Bc A2 | c2 Bc A2 | c2 Bc A2 | c2 Bc A2 | e2 de c2 | %17
 e2 de c2 | e2 de c2 | e2 de c2 | e2 de c2 | e2 de c2 | e2 de c2 | e2 de c2 | a2 aa gf | e2 ee dc | %26
 d2 dd ed | c2 Bc A2 |: E^F ^GA Bc | de d2 c2 :| z6 | z6 | E2 DE C2 | E2 DE C2 | c2 Bc A2 | z6 | %36
 z6 | z6 |] %38
V:2
 z6 | z6 | z6 | z6 | a6 | g6 | f6 | e6 | a6 | g6 | f6 | e6 | f6 | a6 | f6 | a6 | c'2 bc' a2 | %17
 c'2 bc' a2 | c'2 bc' a2 | c'2 bc' a2 | c'2 bc' a2 | c'2 bc' a2 | c'2 bc' a2 | c'2 bc' a2 | %24
 c2 cc cc | c2 cc cc | f2 ff ff | e2 ee e2 |: ^g6 | b4 a2 :| c2 Bc A2 | c2 Bc A2 | c2 Bc A2 | %33
 c2 Bc A2 | c2 Bc A2 | c2 Bc A2 | z6 | z6 |] %38
V:3
 z6 | z6 | z6 | z6 | z6 | z6 | z6 | z6 | e6 | d6 | c6 | A6 | d6 | e6 | d6 | e6 | d6 | e6 | d6 | %19
 e6 | d2 dd d2 | e2 ee e2 | f2 ff f2 | e2 ee e2 | a2 aa gf | e2 ee dc | d2 dd ed | c2 Bc A2 |: %28
 E^F ^GA Bc | de d2 c2 :| A6 | G6 | F6 | E6 | A6 | G6 | c2 Bc A2 | z6 |] %38
V:4
 z6 | z6 | z6 | z6 | z6 | z6 | z6 | z6 | z6 | z6 | z6 | z6 | A,6 | A,6 | F,6 | E,6 | A,6 | A,6 | %18
 F,6 | E,6 | F,2 F,F, F,2 | A,2 A,A, A,2 | D2 DD D2 | A,2 A,A, A,2 | A,2 A,A, G,F, | %25
 E,2 E,E, D,C, | D,2 D,D, E,D, | C,2 B,,C, A,,2 |: E,6 | ^F,2 ^G,2 A,2 :| E,6 | D,6 | C,6 | A,,6 | %34
 E,6 | D,6 | C,6 | C,2 B,,C, A,,2 |] %38

